assets/icons/flag.svg

<svg width="25" height="25" viewBox="0 0 25 25" fill="none" xmlns="http://www.w3.org/2000/svg">
<path d="M7.48291 23.141L7.86933 23.0332C7.95772 23.0085 8.04038 22.9667 8.11258 22.91C8.18475 22.8533 8.24512 22.7831 8.29012 22.7031C8.3352 22.6231 8.364 22.535 8.37495 22.444C8.38597 22.3529 8.37892 22.2605 8.35417 22.1721L3.93709 6.36532C3.90621 6.25485 3.85388 6.15154 3.78307 6.0613C3.71226 5.97105 3.62437 5.89563 3.52442 5.83935C3.42446 5.78308 3.3144 5.74704 3.20052 5.7333C3.08663 5.71956 2.97116 5.72839 2.86068 5.75928L2.81076 5.77303C2.58772 5.8354 2.39859 5.98378 2.28493 6.18557C2.17128 6.38736 2.14243 6.62602 2.20471 6.84908L6.62215 22.6562C6.67203 22.8346 6.79072 22.9859 6.95214 23.0768C7.11356 23.1677 7.30448 23.1908 7.48291 23.141ZM23.0382 12.0947C21.6374 11.3963 20.3416 10.5047 19.1884 9.44618C19.1409 9.40276 19.1065 9.34681 19.0893 9.28471C19.072 9.22268 19.0725 9.15705 19.0908 9.09525C19.6621 6.93381 20.0864 4.73617 20.3608 2.51739C20.4042 2.14834 20.2051 2.03979 19.9953 2.29306C15.8778 7.21741 8.75362 1.39213 4.51311 5.86783C4.56376 5.96299 4.60392 6.06393 4.63251 6.16813L7.49811 16.4293C11.7458 12.0079 18.8447 17.797 22.955 12.8835C23.1649 12.6302 23.2046 12.1671 23.0382 12.0947Z" fill="white"/>
</svg>

<svg xmlns="http://www.w3.org/2000/svg" width="25" height="25" fill="none" viewBox="0 0 25 25"><path fill="#fff" d="m7.483 23.141.386-.108a.7.7 0 0 0 .485-.86L3.937 6.364a.873.873 0 0 0-1.076-.606l-.05.014a.873.873 0 0 0-.606 1.076l4.417 15.807a.7.7 0 0 0 .86.485m15.555-11.046a16.7 16.7 0 0 1-3.85-2.649.34.34 0 0 1-.097-.35c.571-2.162.995-4.36 1.27-6.579.043-.369-.156-.477-.366-.224-4.117 4.924-11.241-.9-15.482 3.575q.075.143.12.3L7.498 16.43c4.248-4.421 11.347 1.368 15.457-3.545.21-.254.25-.717.083-.79"/></svg>
